assets/svg/partners/element.svg

<svg width="60" height="60" viewBox="0 0 60 60" fill="none" xmlns="http://www.w3.org/2000/svg">
<g clip-path="url(#clip0_38_66)">
<mask id="mask0_38_66" style="mask-type:alpha" maskUnits="userSpaceOnUse" x="1" y="4" width="58" height="49">
<path d="M23.4486 41.3283C15.5212 44.8706 6.22291 41.3158 2.68046 33.3885C-0.862031 25.4611 2.6927 16.1629 10.6201 12.6204C18.5476 9.07791 27.8458 12.6326 31.3883 20.5601C34.9307 28.4875 31.376 37.7857 23.4486 41.3283Z" fill="black"/>
<path d="M52.0056 25.1593C46.5171 27.6118 40.0799 25.1509 37.6275 19.6627C35.175 14.1744 37.636 7.73719 43.1241 5.28471C48.6125 2.83222 55.0497 5.2932 57.5022 10.7814C59.9547 16.2696 57.4936 22.7069 52.0056 25.1593Z" fill="black"/>
<path d="M48.157 52.2306C43.7359 54.2062 38.5503 52.2237 36.5746 47.8031C34.599 43.382 36.5815 38.1963 41.0027 36.2206C45.4238 34.245 50.6091 36.2275 52.585 40.6487C54.5606 45.0694 52.5781 50.2551 48.157 52.2306Z" fill="black"/>
</mask>
<g mask="url(#mask0_38_66)">
<path d="M-5.30263 47.7384C4.1667 68.9293 29.0216 78.4313 50.2123 68.9621C71.4027 59.4924 80.9048 34.6378 71.4355 13.4471C61.9663 -7.74356 37.1114 -17.2456 15.9208 -7.77626C-5.26993 1.69307 -14.772 26.5479 -5.30263 47.7384Z" fill="white"/>
<path d="M16.8749 36.9143C21.0305 46.214 31.938 50.3837 41.2375 46.2282C50.5372 42.0723 54.7069 31.165 50.5515 21.8655C46.3956 12.566 35.4883 8.39608 26.1888 12.5517C16.8892 16.7073 12.7193 27.6148 16.8749 36.9143Z" fill="#8FD8E7" fill-opacity="0.25"/>
</g>
</g>
<defs>
<clipPath id="clip0_38_66">
<rect width="60" height="60" fill="white"/>
</clipPath>
</defs>
</svg>

<svg width="60" height="60" fill="none" xmlns="http://www.w3.org/2000/svg"><g clip-path="url(#a)"><mask id="b" style="mask-type:alpha" maskUnits="userSpaceOnUse" x="1" y="4" width="58" height="49"><path d="M23.449 41.328c-7.928 3.543-17.226-.012-20.769-7.94-3.542-7.927.013-17.225 7.94-20.768 7.928-3.542 17.226.013 20.768 7.94 3.543 7.928-.012 17.226-7.94 20.768ZM52.006 25.16c-5.489 2.452-11.926-.01-14.379-5.497-2.452-5.489.009-11.926 5.497-14.378 5.488-2.453 11.926.008 14.378 5.496 2.453 5.489-.008 11.926-5.496 14.378ZM48.157 52.23a8.768 8.768 0 1 1-7.154-16.01 8.768 8.768 0 0 1 7.154 16.01Z" fill="#000"/></mask><g mask="url(#b)"><path d="M-5.303 47.738c9.47 21.191 34.325 30.693 55.515 21.224 21.19-9.47 30.693-34.324 21.224-55.515C61.966-7.743 37.11-17.246 15.92-7.776-5.27 1.694-14.772 26.548-5.303 47.738Z" fill="#fff"/><path d="M16.875 36.914c4.155 9.3 15.063 13.47 24.362 9.314 9.3-4.156 13.47-15.063 9.314-24.363-4.155-9.299-15.063-13.469-24.362-9.313-9.3 4.155-13.47 15.063-9.314 24.362Z" fill="#EEE"/></g></g><defs><clipPath id="a"><path fill="#fff" d="M0 0h60v60H0z"/></clipPath></defs></svg>
